X: 3031
T: Mr WEBSTER
Q:"Strathspey."
R: Strathspey.
%R:strathspey
B: James Kerr "Merry Melodies" v.3 p.6 #31
Z: 2016 John Chambers <jc:trillian.mit.edu>
M: C
L: 1/16
K: Bm
uF2 |\
(FB3)B3c (dcBA) B4 | FB3B3c d3cB3A |\
FB3B3c (dcBA) B4 | A3FD3d c3dB2 ::\
A2 |\
A3Bd3e (fedc) d4 |
A3Bd3e (fd3) (ec3) |\
[1 A3Bd3e (fedc) d4 | A3FD3d c3dB2 :|\
[2 d3f c3e B3d A3B | AF3D3d c3dB2 |]

%%sep 1 1 500
%%sep 1 1 500

